icons/24px/bug.svg

<svg width="24" height="24" viewBox="0 0 24 24" fill="none" xmlns="http://www.w3.org/2000/svg">
<path d="M10 12.4C10 12.1791 10.1791 12 10.4 12H13.6C13.8209 12 14 12.1791 14 12.4V13.6C14 13.8209 13.8209 14 13.6 14H10.4C10.1791 14 10 13.8209 10 13.6V12.4Z" fill="black"/>
<path fill-rule="evenodd" clip-rule="evenodd" d="M6.9657 3.11715C7.12195 2.96095 7.37512 2.96095 7.53137 3.11715L9.82178 5.4076C10.4969 5.14442 11.2317 5 12 5C12.7605 5 13.4879 5.14148 14.1573 5.39953L16.4348 3.12202C16.5946 2.96225 16.8536 2.96225 17.0134 3.12202L17.8812 3.98985C18.041 4.14961 18.041 4.40864 17.8812 4.5684L15.9586 6.49104C16.7217 7.16153 17.3131 8.02264 17.6586 9H20.6C20.8209 9 21 9.17909 21 9.39999V10.6C21 10.8209 20.8209 11 20.6 11H18V15C18 15.3407 17.9716 15.6748 17.917 16H20.6C20.8209 16 21 16.1791 21 16.4V17.6C21 17.8209 20.8209 18 20.6 18H17.4C17.3358 18 17.2751 17.9849 17.2214 17.958C16.1901 19.7745 14.2382 21 12 21C9.76184 21 7.80994 19.7745 6.77856 17.958C6.72485 17.9849 6.66418 18 6.59998 18H3.40002C3.17908 18 3 17.8209 3 17.6V16.4C3 16.1791 3.17908 16 3.40002 16H6.08301C6.02844 15.6748 6 15.3407 6 15V11H3.40002C3.17908 11 3 10.8209 3 10.6V9.39999C3 9.17909 3.17908 9 3.40002 9H6.34143C6.6897 8.0146 7.28809 7.14735 8.0603 6.47451L6.11719 4.53137C5.96094 4.37516 5.96094 4.1219 6.11719 3.96568L6.9657 3.11715ZM8 11C8 8.79086 9.79089 7 12 7C14.2091 7 16 8.79086 16 11V15C16 17.2091 14.2091 19 12 19C9.79089 19 8 17.2091 8 15V11Z" fill="black"/>
</svg>

<?xml version="1.0" encoding="UTF-8"?>
<svg id="Layer_1" data-name="Layer 1" xmlns="http://www.w3.org/2000/svg" viewBox="0 0 24 24">
  <defs>
    <style>
      .cls-1 {
        fill-rule: evenodd;
        stroke-width: 0px;
      }
    </style>
  </defs>
  <path class="cls-1" d="m14,12.4v1.2c0,.2209-.1791.4-.4.4h-3.2c-.2209,0-.4-.1791-.4-.4v-1.2c0-.2209.1791-.4.4-.4h3.2c.2209,0,.4.1791.4.4Zm4,2.6c0,.3407-.0284.6748-.083,1h2.683c.2209,0,.4.1791.4.4v1.2c0,.2209-.1791.4-.4.4h-3.2c-.0642,0-.1249-.0151-.1786-.042-1.0312,1.8165-2.9832,3.042-5.2214,3.042s-4.1901-1.2255-5.2214-3.042c-.0537.0269-.1144.042-.1786.042h-3.2c-.2209,0-.4-.1791-.4-.4v-1.2c0-.2209.1791-.4.4-.4h2.683c-.0546-.3252-.083-.6593-.083-1v-4h-2.6c-.2209,0-.4-.1791-.4-.4v-1.2c0-.2209.1791-.4.4-.4h2.9414c.3483-.9854.9467-1.8527,1.7189-2.5255l-1.9431-1.9431c-.1562-.1562-.1562-.4095,0-.5657l.8485-.8486c.1562-.1562.4094-.1562.5657,0l2.2904,2.2905c.6751-.2632,1.4099-.4076,2.1782-.4076.7605,0,1.4879.1415,2.1573.3995l2.2775-2.2775c.1598-.1597.4188-.1597.5786,0l.8678.8679c.1598.1597.1598.4188,0,.5786l-1.9226,1.9226c.7631.6705,1.3545,1.5316,1.7,2.509h2.9413c.2209,0,.4.1791.4.4v1.2c0,.2209-.1791.4-.4.4h-2.6v4Zm-2-4c0-2.2092-1.7909-4-4-4s-4,1.7908-4,4v4c0,2.2091,1.7909,4,4,4s4-1.7909,4-4v-4Z"/>
</svg>
